X:650
T: Gimlet
T: Bhioml\'og
S: B.Breathnach:"Ceol Rince na hEireann" IV/38
Z: B.Black
L: 1/8
M: 9/8
R: slipjig
K: Ador
Bc/d/B G2B G3|Bc/d/B A2B cBA|Bc/d/B G2B G3|a2A A2B cBA :|
G2g gag fed|e2f g2a bag|bag agf gfe|a2A A2B cBA :|
